X:191
T:Mrs Mac Loud?
O:No 191 William Clarke of Feltwell
M:C
L:1/8
K:C
N: Name illegible. Part A note values changed in bar 6 from equ to e cr
c2 c'2agac'| e2ede2 ed| c2 c'2 agac'|d2 dc d2 de|
c2 c'2 agac'| e2ed e2 eg| agab a2 ab| c'age d2 d2:||
:ccec geeg| e2ed e2 ed| ccec geeg| d2 dc d2 de|
ccec geeg| e2 ed e2 eg| agab a2 ab| c'age d2 d2:||

